static/img/kroki/d338f102b16ce950b3ff9019aff04ad7.svg

<?xml version="1.0" encoding="us-ascii" standalone="no"?><svg xmlns="http://www.w3.org/2000/svg" xmlns:xlink="http://www.w3.org/1999/xlink" contentStyleType="text/css" height="980px" preserveAspectRatio="none" style="width:833px;height:980px;" version="1.1" viewBox="0 0 833 980" width="833px" zoomAndPan="magnify"><defs/><g><!--class azure_compute_disk_type_pricing--><g id="elem_azure_compute_disk_type_pricing"><rect codeLine="23" fill="#3D176E" height="100.3828" id="azure_compute_disk_type_pricing" rx="2.5" ry="2.5" style="stroke:#000D19;stroke-width:0.5;" width="383" x="230.5" y="660.14"/><ellipse cx="272.5" cy="680.0345" fill="#ADD1B2" rx="11" ry="11" style="stroke:#181818;stroke-width:1.0;"/><path d="M275.4688,685.6752 Q274.8906,685.972 274.25,686.1127 Q273.6094,686.2689 272.9063,686.2689 Q270.4063,686.2689 269.0781,684.6283 Q267.7656,682.972 267.7656,679.847 Q267.7656,676.722 269.0781,675.0658 Q270.4063,673.4095 272.9063,673.4095 Q273.6094,673.4095 274.25,673.5658 Q274.9063,673.722 275.4688,674.0189 L275.4688,676.7377 Q274.8438,676.1595 274.25,675.8939 Q273.6563,675.6127 273.0313,675.6127 Q271.6875,675.6127 271,676.6908 Q270.3125,677.7533 270.3125,679.847 Q270.3125,681.9408 271,683.0189 Q271.6875,684.0814 273.0313,684.0814 Q273.6563,684.0814 274.25,683.8158 Q274.8438,683.5345 275.4688,682.9564 L275.4688,685.6752 Z " fill="#000000"/><text fill="#D9B8FF" font-family="Helvetica" font-size="17" lengthAdjust="spacing" textLength="281" x="297.5" y="685.9198">azure_compute_disk_type_pricing</text><line style="stroke:#000D19;stroke-width:0.5;" x1="231.5" x2="612.5" y1="699.9291" y2="699.9291"/><text fill="#D9B8FF" font-family="sans-serif" font-size="14" font-weight="bold" lengthAdjust="spacing" textLength="136" x="241.5" y="721.9242">graduated_offers</text><text fill="#D9B8FF" font-family="sans-serif" font-size="14" lengthAdjust="spacing" textLength="225" x="377.5" y="721.9242">: azure_pricing_graduated_offers</text><text fill="#D9B8FF" font-family="sans-serif" font-size="14" font-weight="bold" lengthAdjust="spacing" textLength="48" x="241.5" y="748.2211">offers</text><text fill="#D9B8FF" font-family="sans-serif" font-size="14" lengthAdjust="spacing" textLength="147" x="289.5" y="748.2211">: azure_pricing_offers</text></g><!--class azure_pricing_graduated_offers--><g id="elem_azure_pricing_graduated_offers"><rect codeLine="27" fill="#3D176E" height="100.3828" id="azure_pricing_graduated_offers" rx="2.5" ry="2.5" style="stroke:#000D19;stroke-width:0.5;" width="404" x="7" y="846.82"/><ellipse cx="69.25" cy="866.7145" fill="#ADD1B2" rx="11" ry="11" style="stroke:#181818;stroke-width:1.0;"/><path d="M72.2188,872.3552 Q71.6406,872.652 71,872.7927 Q70.3594,872.9489 69.6563,872.9489 Q67.1563,872.9489 65.8281,871.3083 Q64.5156,869.652 64.5156,866.527 Q64.5156,863.402 65.8281,861.7458 Q67.1563,860.0895 69.6563,860.0895 Q70.3594,860.0895 71,860.2458 Q71.6563,860.402 72.2188,860.6989 L72.2188,863.4177 Q71.5938,862.8395 71,862.5739 Q70.4063,862.2927 69.7813,862.2927 Q68.4375,862.2927 67.75,863.3708 Q67.0625,864.4333 67.0625,866.527 Q67.0625,868.6208 67.75,869.6989 Q68.4375,870.7614 69.7813,870.7614 Q70.4063,870.7614 71,870.4958 Q71.5938,870.2145 72.2188,869.6364 L72.2188,872.3552 Z " fill="#000000"/><text fill="#D9B8FF" font-family="Helvetica" font-size="17" lengthAdjust="spacing" textLength="261" x="94.75" y="872.5998">azure_pricing_graduated_offers</text><line style="stroke:#000D19;stroke-width:0.5;" x1="8" x2="410" y1="886.6091" y2="886.6091"/><text fill="#D9B8FF" font-family="sans-serif" font-size="14" font-weight="bold" lengthAdjust="spacing" textLength="170" x="18" y="908.6042">premium_ssd_v2_iops</text><text fill="#D9B8FF" font-family="sans-serif" font-size="14" lengthAdjust="spacing" textLength="156" x="188" y="908.6042">: dictionary[string, any]</text><text fill="#D9B8FF" font-family="sans-serif" font-size="14" font-weight="bold" lengthAdjust="spacing" textLength="226" x="18" y="934.9011">premium_ssd_v2_throughput</text><text fill="#D9B8FF" font-family="sans-serif" font-size="14" lengthAdjust="spacing" textLength="156" x="244" y="934.9011">: dictionary[string, any]</text></g><!--class azure_pricing_offers--><g id="elem_azure_pricing_offers"><rect codeLine="31" fill="#3D176E" height="152.9766" id="azure_pricing_offers" rx="2.5" ry="2.5" style="stroke:#000D19;stroke-width:0.5;" width="380" x="446" y="820.52"/><ellipse cx="543.25" cy="840.4145" fill="#ADD1B2" rx="11" ry="11" style="stroke:#181818;stroke-width:1.0;"/><path d="M546.2188,846.0552 Q545.6406,846.352 545,846.4927 Q544.3594,846.6489 543.6563,846.6489 Q541.1563,846.6489 539.8281,845.0083 Q538.5156,843.352 538.5156,840.227 Q538.5156,837.102 539.8281,835.4458 Q541.1563,833.7895 543.6563,833.7895 Q544.3594,833.7895 545,833.9458 Q545.6563,834.102 546.2188,834.3989 L546.2188,837.1177 Q545.5938,836.5395 545,836.2739 Q544.4063,835.9927 543.7813,835.9927 Q542.4375,835.9927 541.75,837.0708 Q541.0625,838.1333 541.0625,840.227 Q541.0625,842.3208 541.75,843.3989 Q542.4375,844.4614 543.7813,844.4614 Q544.4063,844.4614 545,844.1958 Q545.5938,843.9145 546.2188,843.3364 L546.2188,846.0552 Z " fill="#000000"/><text fill="#D9B8FF" font-family="Helvetica" font-size="17" lengthAdjust="spacing" textLength="167" x="568.75" y="846.2998">azure_pricing_offers</text><line style="stroke:#000D19;stroke-width:0.5;" x1="447" x2="825" y1="860.3091" y2="860.3091"/><text fill="#D9B8FF" font-family="sans-serif" font-size="14" font-weight="bold" lengthAdjust="spacing" textLength="202" x="457" y="882.3042">premium_ssd_v2_capacity</text><text fill="#D9B8FF" font-family="sans-serif" font-size="14" lengthAdjust="spacing" textLength="156" x="659" y="882.3042">: dictionary[string, any]</text><text fill="#D9B8FF" font-family="sans-serif" font-size="14" font-weight="bold" lengthAdjust="spacing" textLength="111" x="457" y="908.6011">ultra_ssd_iops</text><text fill="#D9B8FF" font-family="sans-serif" font-size="14" lengthAdjust="spacing" textLength="156" x="568" y="908.6011">: dictionary[string, any]</text><text fill="#D9B8FF" font-family="sans-serif" font-size="14" font-weight="bold" lengthAdjust="spacing" textLength="130" x="457" y="934.8979">ultra_ssd_stored</text><text fill="#D9B8FF" font-family="sans-serif" font-size="14" lengthAdjust="spacing" textLength="156" x="587" y="934.8979">: dictionary[string, any]</text><text fill="#D9B8FF" font-family="sans-serif" font-size="14" font-weight="bold" lengthAdjust="spacing" textLength="167" x="457" y="961.1948">ultra_ssd_throughput</text><text fill="#D9B8FF" font-family="sans-serif" font-size="14" lengthAdjust="spacing" textLength="156" x="624" y="961.1948">: dictionary[string, any]</text></g><!--class microsoft_resource--><g id="elem_microsoft_resource"><rect codeLine="37" fill="#3D176E" height="100.3828" id="microsoft_resource" rx="2.5" ry="2.5" style="stroke:#000D19;stroke-width:0.5;" width="214" x="315" y="438.76"/><ellipse cx="336.3" cy="458.6545" fill="#ADD1B2" rx="11" ry="11" style="stroke:#181818;stroke-width:1.0;"/><path d="M339.2688,464.2952 Q338.6906,464.592 338.05,464.7327 Q337.4094,464.8889 336.7063,464.8889 Q334.2063,464.8889 332.8781,463.2483 Q331.5656,461.592 331.5656,458.467 Q331.5656,455.342 332.8781,453.6858 Q334.2063,452.0295 336.7063,452.0295 Q337.4094,452.0295 338.05,452.1858 Q338.7063,452.342 339.2688,452.6389 L339.2688,455.3577 Q338.6438,454.7795 338.05,454.5139 Q337.4563,454.2327 336.8313,454.2327 Q335.4875,454.2327 334.8,455.3108 Q334.1125,456.3733 334.1125,458.467 Q334.1125,460.5608 334.8,461.6389 Q335.4875,462.7014 336.8313,462.7014 Q337.4563,462.7014 338.05,462.4358 Q338.6438,462.1545 339.2688,461.5764 L339.2688,464.2952 Z " fill="#000000"/><text fill="#D9B8FF" font-family="Helvetica" font-size="17" lengthAdjust="spacing" textLength="158" x="356.7" y="464.5398">microsoft_resource</text><line style="stroke:#000D19;stroke-width:0.5;" x1="316" x2="528" y1="478.5491" y2="478.5491"/><text fill="#D9B8FF" font-family="sans-serif" font-size="14" font-weight="bold" lengthAdjust="spacing" textLength="35" x="326" y="500.5442">etag</text><text fill="#D9B8FF" font-family="sans-serif" font-size="14" lengthAdjust="spacing" textLength="48" x="361" y="500.5442">: string</text><text fill="#D9B8FF" font-family="sans-serif" font-size="14" font-weight="bold" lengthAdjust="spacing" textLength="144" x="326" y="526.8411">provisioning_state</text><text fill="#D9B8FF" font-family="sans-serif" font-size="14" lengthAdjust="spacing" textLength="48" x="470" y="526.8411">: string</text></g><!--class resource--><g id="elem_resource"><rect codeLine="41" fill="#3D176E" height="310.7578" id="resource" rx="2.5" ry="2.5" style="stroke:#000D19;stroke-width:0.5;" width="227" x="308.5" y="7"/><ellipse cx="377.25" cy="26.8945" fill="#ADD1B2" rx="11" ry="11" style="stroke:#181818;stroke-width:1.0;"/><path d="M380.2188,32.5352 Q379.6406,32.832 379,32.9727 Q378.3594,33.1289 377.6563,33.1289 Q375.1563,33.1289 373.8281,31.4883 Q372.5156,29.832 372.5156,26.707 Q372.5156,23.582 373.8281,21.9258 Q375.1563,20.2695 377.6563,20.2695 Q378.3594,20.2695 379,20.4258 Q379.6563,20.582 380.2188,20.8789 L380.2188,23.5977 Q379.5938,23.0195 379,22.7539 Q378.4063,22.4727 377.7813,22.4727 Q376.4375,22.4727 375.75,23.5508 Q375.0625,24.6133 375.0625,26.707 Q375.0625,28.8008 375.75,29.8789 Q376.4375,30.9414 377.7813,30.9414 Q378.4063,30.9414 379,30.6758 Q379.5938,30.3945 380.2188,29.8164 L380.2188,32.5352 Z " fill="#000000"/><text fill="#D9B8FF" font-family="Helvetica" font-size="17" lengthAdjust="spacing" textLength="71" x="402.75" y="32.7798">resource</text><line style="stroke:#000D19;stroke-width:0.5;" x1="309.5" x2="534.5" y1="46.7891" y2="46.7891"/><text fill="#D9B8FF" font-family="sans-serif" font-size="14" font-weight="bold" lengthAdjust="spacing" textLength="29" x="319.5" y="68.7842">age</text><text fill="#D9B8FF" font-family="sans-serif" font-size="14" lengthAdjust="spacing" textLength="66" x="348.5" y="68.7842">: duration</text><text fill="#D9B8FF" font-family="sans-serif" font-size="14" font-weight="bold" lengthAdjust="spacing" textLength="43" x="319.5" y="95.0811">atime</text><text fill="#D9B8FF" font-family="sans-serif" font-size="14" lengthAdjust="spacing" textLength="70" x="362.5" y="95.0811">: datetime</text><text fill="#D9B8FF" font-family="sans-serif" font-size="14" font-weight="bold" lengthAdjust="spacing" textLength="43" x="319.5" y="121.3779">ctime</text><text fill="#D9B8FF" font-family="sans-serif" font-size="14" lengthAdjust="spacing" textLength="70" x="362.5" y="121.3779">: datetime</text><text fill="#D9B8FF" font-family="sans-serif" font-size="14" font-weight="bold" lengthAdjust="spacing" textLength="14" x="319.5" y="147.6748">id</text><text fill="#D9B8FF" font-family="sans-serif" font-size="14" lengthAdjust="spacing" textLength="48" x="333.5" y="147.6748">: string</text><text fill="#D9B8FF" font-family="sans-serif" font-size="14" font-weight="bold" lengthAdjust="spacing" textLength="33" x="319.5" y="173.9717">kind</text><text fill="#D9B8FF" font-family="sans-serif" font-size="14" lengthAdjust="spacing" textLength="48" x="352.5" y="173.9717">: string</text><text fill="#D9B8FF" font-family="sans-serif" font-size="14" font-weight="bold" lengthAdjust="spacing" textLength="90" x="319.5" y="200.2686">last_access</text><text fill="#D9B8FF" font-family="sans-serif" font-size="14" lengthAdjust="spacing" textLength="66" x="409.5" y="200.2686">: duration</text><text fill="#D9B8FF" font-family="sans-serif" font-size="14" font-weight="bold" lengthAdjust="spacing" textLength="90" x="319.5" y="226.5654">last_update</text><text fill="#D9B8FF" font-family="sans-serif" font-size="14" lengthAdjust="spacing" textLength="66" x="409.5" y="226.5654">: duration</text><text fill="#D9B8FF" font-family="sans-serif" font-size="14" font-weight="bold" lengthAdjust="spacing" textLength="48" x="319.5" y="252.8623">mtime</text><text fill="#D9B8FF" font-family="sans-serif" font-size="14" lengthAdjust="spacing" textLength="70" x="367.5" y="252.8623">: datetime</text><text fill="#D9B8FF" font-family="sans-serif" font-size="14" font-weight="bold" lengthAdjust="spacing" textLength="43" x="319.5" y="279.1592">name</text><text fill="#D9B8FF" font-family="sans-serif" font-size="14" lengthAdjust="spacing" textLength="48" x="362.5" y="279.1592">: string</text><text fill="#D9B8FF" font-family="sans-serif" font-size="14" font-weight="bold" lengthAdjust="spacing" textLength="34" x="319.5" y="305.4561">tags</text><text fill="#D9B8FF" font-family="sans-serif" font-size="14" lengthAdjust="spacing" textLength="171" x="353.5" y="305.4561">: dictionary[string, string]</text></g><!--link azure_compute_disk_type_pricing to azure_pricing_graduated_offers--><g id="link_azure_compute_disk_type_pricing_azure_pricing_graduated_offers"><path codeLine="53" d="M364.92,760.82 C334.36,787.32 301.3536,815.9398 270.7736,842.4498 " fill="none" id="azure_compute_disk_type_pricing-to-azure_pricing_graduated_offers" style="stroke:#FFAF37;stroke-width:2.0;"/><polygon fill="#FFAF37" points="266.24,846.38,275.6605,843.5071,270.018,843.1048,270.4203,837.4623,266.24,846.38" style="stroke:#FFAF37;stroke-width:2.0;"/></g><!--link azure_compute_disk_type_pricing to azure_pricing_offers--><g id="link_azure_compute_disk_type_pricing_azure_pricing_offers"><path codeLine="54" d="M479.35,760.82 C500.52,779.09 520.4772,796.3205 543.7272,816.3805 " fill="none" id="azure_compute_disk_type_pricing-to-azure_pricing_offers" style="stroke:#FFAF37;stroke-width:2.0;"/><polygon fill="#FFAF37" points="548.27,820.3,544.0688,811.3922,544.4843,817.0337,538.8427,817.4493,548.27,820.3" style="stroke:#FFAF37;stroke-width:2.0;"/></g><!--reverse link microsoft_resource to azure_compute_disk_type_pricing--><g id="link_microsoft_resource_azure_compute_disk_type_pricing"><path codeLine="55" d="M422,557.46 C422,593.47 422,624.03 422,660 " fill="none" id="microsoft_resource-backto-azure_compute_disk_type_pricing" style="stroke:#FFAF37;stroke-width:2.0;"/><polygon fill="none" points="422,539.46,416,557.46,428,557.46,422,539.46" style="stroke:#FFAF37;stroke-width:2.0;"/></g><!--reverse link resource to microsoft_resource--><g id="link_resource_microsoft_resource"><path codeLine="56" d="M422,336.06 C422,379.65 422,405.98 422,438.42 " fill="none" id="resource-backto-microsoft_resource" style="stroke:#FFAF37;stroke-width:2.0;"/><polygon fill="none" points="422,318.06,416,336.06,428,336.06,422,318.06" style="stroke:#FFAF37;stroke-width:2.0;"/></g><!--SRC=[bPHDZzCm48Rl-HMHzbPHgTqLT8iGqb89mMM5M6u8MLDxabgDxMWywQeB_7ViD0lvQ1hsr6ZccNVU6TlTQOKfcfAFgK6pHVA9tsjR0e59xuZSuyOLZjAhB8FiPjLFVdIM9u5xC9X-mkA0h2NqYMyxBVSMlK-lMwaF8FSvkSggapmJM1zIQBb5RGhm_ewPzBPYR9bHw-rjblN9lkZLZLgktk00SwIG6cInMAZbkezCjheuzr_YGJzXkcmlxTun3cmEMjJKHPUHQ9aS3FgS7_Nu1PJIDazVjs9VJvx88dNY3pjGxZ7I6HI-tSOp4Ze-bhWPJ8NhMvMjpiAVn-14njMby5GH2kbC6OvTAEtt8fQ9ahICDducirbEe2fWLC9bMRZNizdRfgwXH9y8HMDe0_pkz1_JgTkNX4PNHdYlnE5QQ5VMiafBriu27R_xS6rj_Ye5U_mnBE1T63_VXG4lbPqtD6v3GWbIy_6obQe8pwqkcRRzZ_Ni2DN_qY-RpsX9phkC1Q5t5KcifqE6F9QVQkfntK7xe1JNu3aSIYlzBDQHWBn6L4KG7SG8QtEAXVBu7MBoJ4ohJkjmZRk1q8i5I1d-sdeTwanLgiPUAsFEzB5Wi2CSXXuxbDDltDlK4vdFtqyzXvTBD8LdJklTh_byFlLkanu-r4d-0000]--></g></svg>

<svg xmlns="http://www.w3.org/2000/svg" width="833" height="980" viewBox="0 0 833 980"><rect width="383" height="100.383" x="230.5" y="660.14" fill="#3D176E" rx="2.5" ry="2.5" style="stroke:#000d19;stroke-width:.5"/><circle cx="272.5" cy="680.034" r="11" fill="#ADD1B2" style="stroke:#181818;stroke-width:1"/><path d="M275.469 685.675q-.578.297-1.219.438-.64.156-1.344.156-2.5 0-3.828-1.64-1.312-1.657-1.312-4.782t1.312-4.781q1.328-1.657 3.828-1.657.703 0 1.344.157.656.156 1.219.453v2.719q-.625-.579-1.219-.844-.594-.281-1.219-.281-1.344 0-2.031 1.078-.687 1.062-.687 3.156t.687 3.172q.688 1.062 2.031 1.062.625 0 1.219-.265.594-.282 1.219-.86z"/><text x="297.5" y="685.92" fill="#D9B8FF" font-family="Helvetica" font-size="17" textLength="281">azure_compute_disk_type_pricing</text><path d="M231.5 699.929h381" style="stroke:#000d19;stroke-width:.5"/><text x="241.5" y="721.924" fill="#D9B8FF" font-family="sans-serif" font-size="14" font-weight="bold" textLength="136">graduated_offers</text><text x="377.5" y="721.924" fill="#D9B8FF" font-family="sans-serif" font-size="14" textLength="225">: azure_pricing_graduated_offers</text><text x="241.5" y="748.221" fill="#D9B8FF" font-family="sans-serif" font-size="14" font-weight="bold" textLength="48">offers</text><text x="289.5" y="748.221" fill="#D9B8FF" font-family="sans-serif" font-size="14" textLength="147">: azure_pricing_offers</text><rect width="404" height="100.383" x="7" y="846.82" fill="#3D176E" rx="2.5" ry="2.5" style="stroke:#000d19;stroke-width:.5"/><circle cx="69.25" cy="866.715" r="11" fill="#ADD1B2" style="stroke:#181818;stroke-width:1"/><path d="M72.219 872.355q-.578.297-1.219.438-.64.156-1.344.156-2.5 0-3.828-1.64-1.312-1.657-1.312-4.782t1.312-4.781q1.328-1.656 3.828-1.656.703 0 1.344.156.656.156 1.219.453v2.719q-.625-.578-1.219-.844-.594-.281-1.219-.281-1.344 0-2.031 1.078-.687 1.062-.687 3.156t.687 3.172q.688 1.062 2.031 1.062.625 0 1.219-.265.594-.281 1.219-.86z"/><text x="94.75" y="872.6" fill="#D9B8FF" font-family="Helvetica" font-size="17" textLength="261">azure_pricing_graduated_offers</text><path d="M8 886.609h402" style="stroke:#000d19;stroke-width:.5"/><text x="18" y="908.604" fill="#D9B8FF" font-family="sans-serif" font-size="14" font-weight="bold" textLength="170">premium_ssd_v2_iops</text><text x="188" y="908.604" fill="#D9B8FF" font-family="sans-serif" font-size="14" textLength="156">: dictionary[string, any]</text><text x="18" y="934.901" fill="#D9B8FF" font-family="sans-serif" font-size="14" font-weight="bold" textLength="226">premium_ssd_v2_throughput</text><text x="244" y="934.901" fill="#D9B8FF" font-family="sans-serif" font-size="14" textLength="156">: dictionary[string, any]</text><rect width="380" height="152.977" x="446" y="820.52" fill="#3D176E" rx="2.5" ry="2.5" style="stroke:#000d19;stroke-width:.5"/><circle cx="543.25" cy="840.414" r="11" fill="#ADD1B2" style="stroke:#181818;stroke-width:1"/><path d="M546.219 846.055q-.578.297-1.219.438-.64.156-1.344.156-2.5 0-3.828-1.64-1.312-1.657-1.312-4.782t1.312-4.781q1.328-1.657 3.828-1.657.703 0 1.344.157.656.156 1.219.453v2.719q-.625-.579-1.219-.844-.594-.281-1.219-.281-1.343 0-2.031 1.078-.687 1.062-.687 3.156t.687 3.172q.688 1.062 2.031 1.062.625 0 1.219-.265.594-.282 1.219-.86z"/><text x="568.75" y="846.3" fill="#D9B8FF" font-family="Helvetica" font-size="17" textLength="167">azure_pricing_offers</text><path d="M447 860.309h378" style="stroke:#000d19;stroke-width:.5"/><text x="457" y="882.304" fill="#D9B8FF" font-family="sans-serif" font-size="14" font-weight="bold" textLength="202">premium_ssd_v2_capacity</text><text x="659" y="882.304" fill="#D9B8FF" font-family="sans-serif" font-size="14" textLength="156">: dictionary[string, any]</text><text x="457" y="908.601" fill="#D9B8FF" font-family="sans-serif" font-size="14" font-weight="bold" textLength="111">ultra_ssd_iops</text><text x="568" y="908.601" fill="#D9B8FF" font-family="sans-serif" font-size="14" textLength="156">: dictionary[string, any]</text><text x="457" y="934.898" fill="#D9B8FF" font-family="sans-serif" font-size="14" font-weight="bold" textLength="130">ultra_ssd_stored</text><text x="587" y="934.898" fill="#D9B8FF" font-family="sans-serif" font-size="14" textLength="156">: dictionary[string, any]</text><text x="457" y="961.195" fill="#D9B8FF" font-family="sans-serif" font-size="14" font-weight="bold" textLength="167">ultra_ssd_throughput</text><text x="624" y="961.195" fill="#D9B8FF" font-family="sans-serif" font-size="14" textLength="156">: dictionary[string, any]</text><rect width="214" height="100.383" x="315" y="438.76" fill="#3D176E" rx="2.5" ry="2.5" style="stroke:#000d19;stroke-width:.5"/><circle cx="336.3" cy="458.654" r="11" fill="#ADD1B2" style="stroke:#181818;stroke-width:1"/><path d="M339.269 464.295q-.578.297-1.219.438-.64.156-1.344.156-2.5 0-3.828-1.64-1.312-1.657-1.312-4.782t1.312-4.781q1.328-1.656 3.828-1.656.703 0 1.344.156.656.156 1.219.453v2.719q-.625-.579-1.219-.844-.594-.281-1.219-.281-1.344 0-2.031 1.078-.687 1.062-.687 3.156t.687 3.172q.688 1.062 2.031 1.062.625 0 1.219-.265.594-.281 1.219-.86z"/><text x="356.7" y="464.54" fill="#D9B8FF" font-family="Helvetica" font-size="17" textLength="158">microsoft_resource</text><path d="M316 478.549h212" style="stroke:#000d19;stroke-width:.5"/><text x="326" y="500.544" fill="#D9B8FF" font-family="sans-serif" font-size="14" font-weight="bold" textLength="35">etag</text><text x="361" y="500.544" fill="#D9B8FF" font-family="sans-serif" font-size="14" textLength="48">: string</text><text x="326" y="526.841" fill="#D9B8FF" font-family="sans-serif" font-size="14" font-weight="bold" textLength="144">provisioning_state</text><text x="470" y="526.841" fill="#D9B8FF" font-family="sans-serif" font-size="14" textLength="48">: string</text><rect width="227" height="310.758" x="308.5" y="7" fill="#3D176E" rx="2.5" ry="2.5" style="stroke:#000d19;stroke-width:.5"/><circle cx="377.25" cy="26.895" r="11" fill="#ADD1B2" style="stroke:#181818;stroke-width:1"/><path d="M380.219 32.535q-.578.297-1.219.438-.64.156-1.344.156-2.5 0-3.828-1.64-1.312-1.657-1.312-4.782t1.312-4.781q1.328-1.656 3.828-1.656.703 0 1.344.156.656.156 1.219.453v2.719q-.625-.578-1.219-.844-.594-.281-1.219-.281-1.344 0-2.031 1.078-.687 1.062-.687 3.156t.687 3.172q.688 1.062 2.031 1.062.625 0 1.219-.265.594-.281 1.219-.86z"/><text x="402.75" y="32.78" fill="#D9B8FF" font-family="Helvetica" font-size="17" textLength="71">resource</text><path d="M309.5 46.789h225" style="stroke:#000d19;stroke-width:.5"/><text x="319.5" y="68.784" fill="#D9B8FF" font-family="sans-serif" font-size="14" font-weight="bold" textLength="29">age</text><text x="348.5" y="68.784" fill="#D9B8FF" font-family="sans-serif" font-size="14" textLength="66">: duration</text><text x="319.5" y="95.081" fill="#D9B8FF" font-family="sans-serif" font-size="14" font-weight="bold" textLength="43">atime</text><text x="362.5" y="95.081" fill="#D9B8FF" font-family="sans-serif" font-size="14" textLength="70">: datetime</text><text x="319.5" y="121.378" fill="#D9B8FF" font-family="sans-serif" font-size="14" font-weight="bold" textLength="43">ctime</text><text x="362.5" y="121.378" fill="#D9B8FF" font-family="sans-serif" font-size="14" textLength="70">: datetime</text><text x="319.5" y="147.675" fill="#D9B8FF" font-family="sans-serif" font-size="14" font-weight="bold" textLength="14">id</text><text x="333.5" y="147.675" fill="#D9B8FF" font-family="sans-serif" font-size="14" textLength="48">: string</text><text x="319.5" y="173.972" fill="#D9B8FF" font-family="sans-serif" font-size="14" font-weight="bold" textLength="33">kind</text><text x="352.5" y="173.972" fill="#D9B8FF" font-family="sans-serif" font-size="14" textLength="48">: string</text><text x="319.5" y="200.269" fill="#D9B8FF" font-family="sans-serif" font-size="14" font-weight="bold" textLength="90">last_access</text><text x="409.5" y="200.269" fill="#D9B8FF" font-family="sans-serif" font-size="14" textLength="66">: duration</text><text x="319.5" y="226.565" fill="#D9B8FF" font-family="sans-serif" font-size="14" font-weight="bold" textLength="90">last_update</text><text x="409.5" y="226.565" fill="#D9B8FF" font-family="sans-serif" font-size="14" textLength="66">: duration</text><text x="319.5" y="252.862" fill="#D9B8FF" font-family="sans-serif" font-size="14" font-weight="bold" textLength="48">mtime</text><text x="367.5" y="252.862" fill="#D9B8FF" font-family="sans-serif" font-size="14" textLength="70">: datetime</text><text x="319.5" y="279.159" fill="#D9B8FF" font-family="sans-serif" font-size="14" font-weight="bold" textLength="43">name</text><text x="362.5" y="279.159" fill="#D9B8FF" font-family="sans-serif" font-size="14" textLength="48">: string</text><text x="319.5" y="305.456" fill="#D9B8FF" font-family="sans-serif" font-size="14" font-weight="bold" textLength="34">tags</text><text x="353.5" y="305.456" fill="#D9B8FF" font-family="sans-serif" font-size="14" textLength="171">: dictionary[string, string]</text><path fill="none" d="M364.92 760.82c-30.56 26.5-63.566 55.12-94.146 81.63" style="stroke:#ffaf37;stroke-width:2"/><path fill="#FFAF37" d="m266.24 846.38 9.42-2.873-5.642-.402.402-5.643z" style="stroke:#ffaf37;stroke-width:2"/><path fill="none" d="M479.35 760.82c21.17 18.27 41.127 35.5 64.377 55.56" style="stroke:#ffaf37;stroke-width:2"/><path fill="#FFAF37" d="m548.27 820.3-4.201-8.908.415 5.642-5.641.415z" style="stroke:#ffaf37;stroke-width:2"/><path fill="none" d="M422 557.46V660m0-120.54-6 18h12zm0-203.4v102.36m0-120.36-6 18h12z" style="stroke:#ffaf37;stroke-width:2"/></svg>
